apps/symbolic/telegram-symbolic.svg

<svg height="24" viewBox="0 0 24 24" width="24" xmlns="http://www.w3.org/2000/svg"><path d="m17.925781 4c-.107398.0014043-.226578.0314969-.357422.09375l-12.9316402 5.962891c-1.3540524.549367-.1269532 1.33789-.1269532 1.33789l3.9355469 2.947266v.013672l8.6249995-8.7871096-7.1425776 9.6796876-1.2402344 1.876953c-.0372186.049494-.070517.094086-.1035156.109375.182817.255062.5191965.184336.8339844.160156l2.1484372-.716797 4.013672-7.3417965-4.007812 7.3457035 3.814453 2.855468s1.451528 1.341288 1.636719-.542968l1.40625-14.3125004c.019131-.4307736-.181711-.6858534-.503907-.6816406z" fill="#bebebe" fill-rule="evenodd"/></svg>

<?xml version="1.0" encoding="UTF-8" standalone="no"?>
<svg
   xmlns:dc="http://purl.org/dc/elements/1.1/"
   xmlns:cc="http://creativecommons.org/ns#"
   xmlns:rdf="http://www.w3.org/1999/02/22-rdf-syntax-ns#"
   xmlns:svg="http://www.w3.org/2000/svg"
   xmlns="http://www.w3.org/2000/svg"
   xmlns:sodipodi="http://sodipodi.sourceforge.net/DTD/sodipodi-0.dtd"
   xmlns:inkscape="http://www.inkscape.org/namespaces/inkscape"
   version="1.1"
   width="24"
   height="24"
   viewBox="0 0 24 24"
   id="svg2"
   inkscape:version="0.92.1 r15371"
   sodipodi:docname="telegram-symbolic.svg">
  <metadata
     id="metadata10">
    <rdf:RDF>
      <cc:Work
         rdf:about="">
        <dc:format>image/svg+xml</dc:format>
        <dc:type
           rdf:resource="http://purl.org/dc/dcmitype/StillImage" />
        <dc:title />
      </cc:Work>
    </rdf:RDF>
  </metadata>
  <defs
     id="defs8" />
  <sodipodi:namedview
     pagecolor="#ffffff"
     bordercolor="#666666"
     borderopacity="1"
     objecttolerance="10"
     gridtolerance="10"
     guidetolerance="10"
     inkscape:pageopacity="0"
     inkscape:pageshadow="2"
     inkscape:window-width="640"
     inkscape:window-height="480"
     id="namedview6"
     showgrid="false"
     inkscape:zoom="8"
     inkscape:cx="25.799592"
     inkscape:cy="-2.1617331"
     inkscape:current-layer="svg2" />
  <path
     style="opacity:1;fill:#bebebe;fill-opacity:1;fill-rule:evenodd;stroke:none;stroke-width:0.63770831px;stroke-linecap:butt;stroke-linejoin:miter;stroke-opacity:1"
     d="M 17.925781 4 C 17.818383 4.0014043 17.699203 4.0314969 17.568359 4.09375 L 4.6367188 10.056641 C 3.2826664 10.606008 4.5097656 11.394531 4.5097656 11.394531 L 8.4453125 14.341797 L 8.4453125 14.355469 L 17.070312 5.5683594 L 9.9277344 15.248047 L 8.6875 17.125 C 8.6502814 17.174494 8.616983 17.219086 8.5839844 17.234375 C 8.7668014 17.489437 9.1031809 17.418711 9.4179688 17.394531 L 11.566406 16.677734 L 15.580078 9.3359375 L 11.572266 16.681641 L 15.386719 19.537109 C 15.386719 19.537109 16.838247 20.878397 17.023438 18.994141 L 18.429688 4.6816406 C 18.448819 4.250867 18.247977 3.9957872 17.925781 4 z "
     id="path4183" />
</svg>
